app/dist/common/images/victory-giant-tech.svg

<svg height="18" viewBox="0 0 18 18" width="18" xmlns="http://www.w3.org/2000/svg"><path d="m0 0h18v18h-18z" fill="#f0f3fa"/><path d="m10.68 13h1.3c.57 0 1.02-.42 1.02-.93v-6.14c0-.51-.45-.93-1.01-.93h-1.52a5.84 5.84 0 0 0 -.27 1.79c0 .84.17 1.51.36 2.07l.05.18c.2.6.39 1.18.39 2.42 0 .64-.16 1.17-.32 1.54zm-3.44-8a5.1 5.1 0 0 0 -.24 1.54c0 1.37.23 2.09.44 2.75l.02.04c.17.54.34 1.06.34 1.88a4.6 4.6 0 0 1 -.34 1.79h-1.46c-.55 0-1-.42-1-.93v-6.14c0-.51.45-.93 1.01-.93z" fill="#29166f"/><path d="m8 6.78c0-.78.2-1.45.33-1.78h1.33a5.73 5.73 0 0 0 -.33 2c0 .77.13 1.48.28 2h-.28v.8h.5c.1.41.17.74.17 1.52 0 .76-.23 1.35-.38 1.68h-1.32c.2-.45.38-1.06.38-1.9 0-.63-.08-.89-.2-1.3h.42v-.8h-.63a8.42 8.42 0 0 1 -.27-2.22z" fill="#da251c"/></svg>

<!-- by TradingView --><svg width="18" height="18" viewBox="0 0 18 18" xmlns="http://www.w3.org/2000/svg"><path fill="#F0F3FA" d="M0 0h18v18H0z"/><path d="M10.68 13h1.3c.57 0 1.02-.42 1.02-.93V5.93c0-.51-.45-.93-1.01-.93h-1.52a5.84 5.84 0 0 0-.27 1.79c0 .84.17 1.51.36 2.07l.05.18c.2.6.39 1.18.39 2.42 0 .64-.16 1.17-.32 1.54ZM7.24 5A5.1 5.1 0 0 0 7 6.54c0 1.37.23 2.09.44 2.75l.02.04c.17.54.34 1.06.34 1.88A4.6 4.6 0 0 1 7.46 13H6C5.45 13 5 12.58 5 12.07V5.93C5 5.42 5.45 5 6.01 5h1.23Z" fill="#29166F"/><path d="M8 6.78C8 6 8.2 5.33 8.33 5h1.33a5.73 5.73 0 0 0-.33 2c0 .77.13 1.48.28 2h-.28v.8h.5c.1.41.17.74.17 1.52 0 .76-.23 1.35-.38 1.68H8.3c.2-.45.38-1.06.38-1.9 0-.63-.08-.89-.2-1.3h.42V9h-.63A8.42 8.42 0 0 1 8 6.78Z" fill="#DA251C"/></svg>
